modules/hawcons-filled/icons/icon-113-search-minus.svg

<?xml version="1.0" encoding="UTF-8" standalone="no"?>
<svg width="32px" height="32px" viewBox="0 0 32 32" version="1.1" xmlns="http://www.w3.org/2000/svg" xmlns:xlink="http://www.w3.org/1999/xlink" xmlns:sketch="http://www.bohemiancoding.com/sketch/ns">
    <!-- Generator: Sketch 3.0.3 (7891) - http://www.bohemiancoding.com/sketch -->
    <title>icon 113 search minus</title>
    <desc>Created with Sketch.</desc>
    <defs></defs>
    <g id="Page-1" stroke="none" stroke-width="1" fill="none" fill-rule="evenodd" sketch:type="MSPage">
        <g id="icon-113-search-minus" sketch:type="MSArtboardGroup" fill="#929292">
            <path d="M19.4271164,21.4271164 C18.0372495,22.4174803 16.3366522,23 14.5,23 C9.80557939,23 6,19.1944206 6,14.5 C6,9.80557939 9.80557939,6 14.5,6 C19.1944206,6 23,9.80557939 23,14.5 C23,16.3366522 22.4174803,18.0372495 21.4271164,19.4271164 L27.0119176,25.0119176 C27.5621186,25.5621186 27.5575313,26.4424687 27.0117185,26.9882815 L26.9882815,27.0117185 C26.4438648,27.5561352 25.5576204,27.5576204 25.0119176,27.0119176 L19.4271164,21.4271164 L19.4271164,21.4271164 L19.4271164,21.4271164 Z M14.5,21 C18.0898511,21 21,18.0898511 21,14.5 C21,10.9101489 18.0898511,8 14.5,8 C10.9101489,8 8,10.9101489 8,14.5 C8,18.0898511 10.9101489,21 14.5,21 L14.5,21 Z M10,14 L10,15 L19,15 L19,14 L10,14 L10,14 Z" id="search-minus" sketch:type="MSShapeGroup"></path>
        </g>
    </g>
</svg>

<svg width="32" height="32" viewBox="0 0 32 32" xmlns="http://www.w3.org/2000/svg"><path d="M19.427 21.427a8.5 8.5 0 1 1 2-2l5.585 5.585c.55.55.546 1.43 0 1.976l-.024.024a1.399 1.399 0 0 1-1.976 0l-5.585-5.585zM14.5 21a6.5 6.5 0 1 0 0-13 6.5 6.5 0 0 0 0 13zM10 14v1h9v-1h-9z" fill="#929292" fill-rule="evenodd"/></svg>
